X: 5646
T: Butterley's Boat
R: hornpipe
M: 4/4
K: Dmixolydian
AB (3cBA dcAG|AB (3cBA dcAF|G2 AB (3cBA GF|G2 AB (3cBA GB|
AB (3cBA dcAG|AB (3cBA dc A2|defd (3efg ag|fd (3cBA dcAG:|
A2 fA A2 fA|A2 fAgA fA|G2 eG G2 eG|G2 eGfG eG|
A2 fA A2 fA|A2 fAgA f2|(3agf (3gfe faea|d^cAB (3=cBA GB:|

